symbols/web/speaker_notes/materialsymbolsrounded/speaker_notes_gradN25fill1_40px.svg

<svg xmlns="http://www.w3.org/2000/svg" height="40" width="40"><path d="M18.042 13.083h10.541q.542 0 .917-.395.375-.396.375-.938 0-.542-.375-.917t-.917-.375H18.042q-.542 0-.938.375-.396.375-.396.917 0 .583.396.958t.938.375Zm0 4.917h10.541q.542 0 .917-.396t.375-.937q0-.542-.375-.917t-.917-.375H18.042q-.542 0-.938.375-.396.375-.396.917 0 .583.396.958t.938.375Zm0 4.917h5.541q.542 0 .917-.396t.375-.938q0-.541-.375-.916t-.917-.375h-5.541q-.542 0-.938.375-.396.375-.396.916 0 .584.396.959t.938.375Zm-6.25-9.542q.708 0 1.187-.458.479-.459.479-1.167 0-.667-.479-1.146-.479-.479-1.187-.479-.667 0-1.146.458-.479.459-.479 1.167t.479 1.167q.479.458 1.146.458Zm0 4.958q.708 0 1.187-.479.479-.479.479-1.187 0-.667-.479-1.146-.479-.479-1.187-.479-.667 0-1.146.458-.479.458-.479 1.167 0 .708.479 1.187.479.479 1.146.479Zm0 4.917q.708 0 1.187-.479.479-.479.479-1.188 0-.666-.479-1.145-.479-.48-1.187-.48-.667 0-1.146.459-.479.458-.479 1.166 0 .709.479 1.188t1.146.479Zm-8.167 9.875V6.208q0-1.041.771-1.833t1.854-.792h27.5q1.042 0 1.833.792.792.792.792 1.833v20.917q0 1.042-.792 1.833-.791.792-1.833.792H10.125l-4.292 4.292q-.625.625-1.416.27-.792-.354-.792-1.187Z"/></svg>

<svg xmlns="http://www.w3.org/2000/svg" height="40" width="40"><path d="M18.042 13.083H28.583Q29.125 13.083 29.5 12.688Q29.875 12.292 29.875 11.75Q29.875 11.208 29.5 10.833Q29.125 10.458 28.583 10.458H18.042Q17.5 10.458 17.104 10.833Q16.708 11.208 16.708 11.75Q16.708 12.333 17.104 12.708Q17.5 13.083 18.042 13.083ZM18.042 18H28.583Q29.125 18 29.5 17.604Q29.875 17.208 29.875 16.667Q29.875 16.125 29.5 15.75Q29.125 15.375 28.583 15.375H18.042Q17.5 15.375 17.104 15.75Q16.708 16.125 16.708 16.667Q16.708 17.25 17.104 17.625Q17.5 18 18.042 18ZM18.042 22.917H23.583Q24.125 22.917 24.5 22.521Q24.875 22.125 24.875 21.583Q24.875 21.042 24.5 20.667Q24.125 20.292 23.583 20.292H18.042Q17.5 20.292 17.104 20.667Q16.708 21.042 16.708 21.583Q16.708 22.167 17.104 22.542Q17.5 22.917 18.042 22.917ZM11.792 13.375Q12.5 13.375 12.979 12.917Q13.458 12.458 13.458 11.75Q13.458 11.083 12.979 10.604Q12.5 10.125 11.792 10.125Q11.125 10.125 10.646 10.583Q10.167 11.042 10.167 11.75Q10.167 12.458 10.646 12.917Q11.125 13.375 11.792 13.375ZM11.792 18.333Q12.5 18.333 12.979 17.854Q13.458 17.375 13.458 16.667Q13.458 16 12.979 15.521Q12.5 15.042 11.792 15.042Q11.125 15.042 10.646 15.5Q10.167 15.958 10.167 16.667Q10.167 17.375 10.646 17.854Q11.125 18.333 11.792 18.333ZM11.792 23.25Q12.5 23.25 12.979 22.771Q13.458 22.292 13.458 21.583Q13.458 20.917 12.979 20.438Q12.5 19.958 11.792 19.958Q11.125 19.958 10.646 20.417Q10.167 20.875 10.167 21.583Q10.167 22.292 10.646 22.771Q11.125 23.25 11.792 23.25ZM3.625 33.125V6.208Q3.625 5.167 4.396 4.375Q5.167 3.583 6.25 3.583H33.75Q34.792 3.583 35.583 4.375Q36.375 5.167 36.375 6.208V27.125Q36.375 28.167 35.583 28.958Q34.792 29.75 33.75 29.75H10.125L5.833 34.042Q5.208 34.667 4.417 34.312Q3.625 33.958 3.625 33.125Z"/></svg>
